src/assets/social-twitter.svg

<svg width="15" height="12" viewBox="0 0 15 12" fill="none" xmlns="http://www.w3.org/2000/svg">
<path d="M15 1.46153C14.4643 1.6923 13.852 1.84615 13.2398 1.92308C13.852 1.53846 14.3878 0.923079 14.6173 0.230771C14.0051 0.615387 13.3929 0.846156 12.6276 1C12.0918 0.384618 11.25 0 10.4082 0C8.72449 0 7.34694 1.38461 7.34694 3.07692C7.34694 3.30769 7.34694 3.53846 7.42347 3.76922C4.89796 3.61538 2.60204 2.38461 1.07142 0.538459C0.841832 0.999997 0.688771 1.53846 0.688771 2.07692C0.688771 3.15384 1.22449 4.07692 2.06633 4.61538C1.53061 4.61538 1.07142 4.46154 0.688771 4.23077C0.688771 5.69231 1.7602 6.99999 3.13775 7.23076C2.90816 7.30768 2.60204 7.30769 2.29592 7.30769C2.06633 7.30769 1.91326 7.30768 1.68367 7.23076C2.06633 8.46153 3.21429 9.38461 4.59184 9.38461C3.52041 10.2308 2.21939 10.6923 0.765306 10.6923C0.535715 10.6923 0.306123 10.6923 0 10.6154C1.37755 11.4615 2.98469 12 4.7449 12C10.4082 12 13.4694 7.30769 13.4694 3.23077V2.84615C14.0816 2.61538 14.6173 2.07692 15 1.46153Z" fill="currentColor"/>
</svg>

<svg xmlns="http://www.w3.org/2000/svg" width="50" height="50" viewBox="0 0 15 12" preserveAspectRatio="xMidYMid meet" fill="none" class="undefined">
  <path fill="currentColor" d="M15 1.462a6.6 6.6 0 0 1-1.76.461c.612-.385 1.148-1 1.377-1.692-.612.384-1.224.615-1.99.769a3 3 0 0 0-2.219-1C8.724 0 7.347 1.385 7.347 3.077c0 .23 0 .461.076.692A9 9 0 0 1 1.071.54C.841 1 .69 1.538.69 2.076c0 1.077.535 2 1.377 2.538-.535 0-.995-.153-1.377-.384 0 1.461 1.071 2.769 2.449 3-.23.077-.536.077-.842.077-.23 0-.383 0-.612-.077.382 1.23 1.53 2.154 2.908 2.154-1.072.846-2.373 1.307-3.827 1.307-.23 0-.459 0-.765-.077C1.378 11.461 2.985 12 4.745 12c5.663 0 8.724-4.692 8.724-8.77v-.384c.613-.23 1.148-.77 1.531-1.384"></path>
</svg>
